svg_80x80/angularjs.svg

<svg viewBox="0 0 80 80" xmlns="http://www.w3.org/2000/svg">
<rect width="100%" height="100%" fill="white"/>
<mask id="mask0_68_528" style="mask-type:luminance" maskUnits="userSpaceOnUse" x="11" y="9" width="59" height="62">
<path d="M11 9H69.5848V71H11V9Z" fill="white"/>
</mask>
<g mask="url(#mask0_68_528)">
<path d="M69.3423 19.2962L67.2356 52.3777L47.0932 9L69.3423 19.2962ZM55.3909 62.0723L40.1713 70.7565L24.9513 62.0723L28.0468 54.5703H52.2954L55.3909 62.0723ZM40.1713 25.4655L48.1464 44.8544H32.1959L40.1713 25.4655ZM13.0851 52.3777L11 19.2962L33.2491 9L13.0851 52.3777Z" fill="url(#paint0_linear_68_528)"/>
<path d="M69.3423 19.2962L67.2356 52.3777L47.0932 9L69.3423 19.2962ZM55.3909 62.0723L40.1713 70.7565L24.9513 62.0723L28.0468 54.5703H52.2954L55.3909 62.0723ZM40.1713 25.4655L48.1464 44.8544H32.1959L40.1713 25.4655ZM13.0851 52.3777L11 19.2962L33.2491 9L13.0851 52.3777Z" fill="url(#paint1_linear_68_528)"/>
</g>
<linearGradient id="paint0_linear_68_528" x1="23.8752" y1="65.1547" x2="70.328" y2="43.0795" gradientUnits="userSpaceOnUse">
<stop stop-color="#E40035"/>
<stop offset="0.24" stop-color="#F60A48"/>
<stop offset="0.352" stop-color="#F20755"/>
<stop offset="0.494" stop-color="#DC087D"/>
<stop offset="0.745" stop-color="#9717E7"/>
<stop offset="1" stop-color="#6C00F5"/>
</linearGradient>
<linearGradient id="paint1_linear_68_528" x1="21.7778" y1="16.4463" x2="52.1777" y2="51.1243" gradientUnits="userSpaceOnUse">
<stop stop-color="#FF31D9"/>
<stop offset="1" stop-color="#FF5BE1" stop-opacity="0"/>
</linearGradient>
</svg>

<svg xmlns="http://www.w3.org/2000/svg" viewBox="0 0 80 80">
  <rect width="100%" height="100%" fill="#fff"/>
  <mask id="a" width="59" height="62" x="11" y="9" maskUnits="userSpaceOnUse" style="mask-type:luminance">
    <path fill="#fff" d="M11 9h58.58v62H11V9Z"/>
  </mask>
  <g mask="url(#a)">
    <path fill="url(#b)" d="m69.34 19.3-2.1 33.08L47.09 9l22.25 10.3ZM55.4 62.07l-15.22 8.69-15.22-8.69 3.1-7.5H52.3l3.1 7.5Zm-15.22-36.6 7.98 19.38H32.2l7.97-19.38ZM13.1 52.37 11 19.3 33.25 9 13.09 52.38Z"/>
    <path fill="url(#c)" d="m69.34 19.3-2.1 33.08L47.09 9l22.25 10.3ZM55.4 62.07l-15.22 8.69-15.22-8.69 3.1-7.5H52.3l3.1 7.5Zm-15.22-36.6 7.98 19.38H32.2l7.97-19.38ZM13.1 52.37 11 19.3 33.25 9 13.09 52.38Z"/>
  </g>
  <linearGradient id="b" x1="23.88" x2="70.33" y1="65.15" y2="43.08" gradientUnits="userSpaceOnUse">
    <stop stop-color="#E40035"/>
    <stop offset=".24" stop-color="#F60A48"/>
    <stop offset=".35" stop-color="#F20755"/>
    <stop offset=".49" stop-color="#DC087D"/>
    <stop offset=".74" stop-color="#9717E7"/>
    <stop offset="1" stop-color="#6C00F5"/>
  </linearGradient>
  <linearGradient id="c" x1="21.78" x2="52.18" y1="16.45" y2="51.12" gradientUnits="userSpaceOnUse">
    <stop stop-color="#FF31D9"/>
    <stop offset="1" stop-color="#FF5BE1" stop-opacity="0"/>
  </linearGradient>
</svg>
